static/assets/template/assets/img/icons/essential/detailed/Support.svg

<svg height="132" viewBox="0 0 149 132" width="149" xmlns="http://www.w3.org/2000/svg"><g fill="none" fill-rule="evenodd"><g transform="translate(1 26)"><g fill-rule="nonzero"><path d="m.9 104.5h89.6c0-11.5-8.5-28.5-25.7-28.6-8.6 0-9.5-.5-9.5-.5v-10c6.3-5.2 11.7-11.4 13.2-19.4 3.9-.9 6.5-4.5 6.1-8.5-.2-1.8-1.3-3.4-1.3-5.2-.1-5-.1-9.8-3.4-16-5-9.4-14.8-15.6-26-15.6-2.2 0-4.5.3-6.7.8-4.7 1.1-9.2 3.4-12.8 6.6-3.8 3.3-6.6 7.6-8.2 12.4s-1.9 9.9-1.2 14.8c.1.8.4.7-.2 1.5-1 1.3-2 3.6-1.1 6.3 1.5 4.2 4.5 3.7 7.3 6.1-.2.1-.3.2-.5.3l-3.2 1c-18.6 5.8-20.7 25.7-1.6 29.3l-3.3.8c-7.3 5.7-11.5 15.6-11.5 23.9z"/><path d="m25.6 58.8.2-.8 1.6 1.3 8.6 7-.1 2-.2 2.7-.3 4.6v.2s-1.3-.1-8.8-5.7-2.7-9.3-1-11.3zm57.3 25.7s-.1-.1-.1-.1c-.8-1-1.8-2-2.9-2.8-.1-.1-.3-.2-.4-.3 0 0-.1-.1-.1-.1-1.6-1.2-3.3-2.2-5.4-3-2.6-1-5.6-1.5-9.1-1.6-8.1-.1-9.8.3-9.8.3v-9.5l.2-.1c.9-.8 1.8-1.5 2.6-2.4 3.9-3.8 7.2-8 8.8-13.1.3-.9.5-1.8.7-2.8.1 0 .3-.1.4-.1 2.6-.7 4.5-2.9 5.1-5.5.2-.8.2-1.6.2-2.5-.2-1.7-1.2-3.2-1.2-5 0-2.4-.1-4.8-.5-7.3-.4-2.4-1.2-5-2.7-7.9-4.7-8.9-13.8-14.8-24.2-14.8-2.1 0-4.2.2-6.2.7-4.4 1.1-8.5 3.2-11.9 6.3-3.5 3.2-6.2 7.3-7.6 11.8-1.1 3.5-1.6 7.1-1.4 10.8 0 1.1.1 2.2.3 3.3.1.8.3.7-.2 1.4-.9 1.3-1.9 3.4-1 6 .1.2.1.4.2.5.1.2.2.5.3.7.7 1.3 1.6 1.9 2.6 2.4.9.5 1.8.8 2.7 1.4.3.2.6.4.9.7-.1.1-.2.1-.4.2 0 0-.1 0-.1.1l-3 1c-15 4.8-18.5 19.5-7.7 25.7.6.3 1.3.7 2 1 .3.1.5.2.8.3 1.1.4 2.2.7 3.5 1l-3.1.8c-4.3 3.4-7.4 8.4-9.2 13.5-1.5 4.5 1.8 9.2 6.6 9.2h76.5c0-6.3-1.4-14.3-6.2-20.2z"/><path d="m34.5 93.8c-8.3 2.4-6.8.7-6.8.7s3.7-6.4.1-10.2c-2.5-2.7-8-3.5-13.9-4.4-13.1-5.4-10.1-21.6 5.7-26.7l3-1s.1 0 .1-.1c1.4 2.3 3.1 4.9 4.7 7.2l-1.6-1.3-.2.8c-1.7 2-6.3 5.7 1.1 11.3s8.8 5.7 8.8 5.7v-.2l3.2 5s4.2 10.8-4.2 13.2z"/><path d="m30.8 19.3c-1 8.7-6.9 11.3-13.5 16.2-.1-3.6.3-7.3 1.4-10.8 1.5-4.5 4.1-8.6 7.6-11.8 3.4-3.1 7.5-5.2 11.9-6.3 2-.5 4.1-.7 6.2-.7 10.4 0 19.5 5.9 24.2 14.8 1.5 2.9 2.3 5.5 2.7 7.9-14.4 7.1-33.9-2.9-40.4-12.5.1 1.1 0 2.2-.1 3.2"/><path d="m81.8 104.5c2-8.9-1.7-17.8-7.4-26.4 12 4.4 15.1 17.3 15.1 26.4z" fill="#bad8ff"/><path d="m55.5 67v5.5c-.1 0-.1.1-.2.1s-.1.1-.2.1c-9.9 3.9-15.2 1.8-18.9-1.6l.2-2.7c2.2.9 5.4 2.1 7.6 2.6 3.7.9 9.5-2.7 9.5-2.7 1.3-.7.9-.5 2-1.3z" fill="#bad8ff"/></g><g stroke-linecap="round" stroke-linejoin="round" stroke-width="3"><path d="m25.8 8.3 5.2 7.7c6.6 9.8 26.5 19.9 41 12.2l.9-.4"/><path d="m15.5 36.4 1.2-.6c4-3 7.8-5 10.4-8"/><path d="m2.6 63.9c-1.2 4.9.6 10 6 13.3 4.6 2.9 9.8 2.6 14.9 4 2.1.6 4.3 1.6 5.2 3.8 1.3 3.2-.3 7.1-1.5 10 21.8-1.1 11-18.8 5.2-22.7-6-4-14.8-7.3-5.6-14.3"/><path d="m20.5 49.4-3.2 1c-3.3 1-6.1 2.5-8.3 4.3"/><path d="m90.4 104.5c0-12.4-9.5-28.6-24.9-28.6-9.4 0-10.3-.5-10.3-.5v-1.3"/><path d="m36.1 75.4v-8.4"/><path d="m.9 104.5c0-8.3 4.2-18.2 11.6-23.9l1-.8"/><path d="m53.8 66.6c-3.9 2.8-8.7 4.5-13.4 2.5-2.8-1.2-5.1-3.2-7.6-4.9-6.8-4.7-8-10.5-10.7-13.9-2.8-3.6-6.7-2.4-8.3-7.1-1-2.7.1-4.9 1.1-6.3.6-.8.3-.6.2-1.5-.7-5-.4-10 1.2-14.8s4.4-9.1 8.2-12.4c1.1-1 2.3-1.9 3.5-2.7"/><path d="m43.1.8h.8c11.1 0 21 6.2 26 15.6 3.3 6.2 3.3 10.9 3.4 16 0 1.8 1.1 3.4 1.3 5.2.4 4-2.1 7.6-6.1 8.5-1 5-3.4 9.3-6.6 13"/><path d="m34 2.5c.1 0 .2-.1.4-.1"/></g></g><g transform="translate(82 2)"><path d="m21.8 48h35.6c4.2 0 7.6-3.4 7.6-7.6v-32.6c0-4.2-3.4-7.6-7.6-7.6h-49c-4.2 0-7.6 3.4-7.6 7.6v45.3c0 1.8 2.1 2.9 3.6 1.7l5.7-6.8h.4" fill-rule="nonzero"/><path d="m65 10.5v30.8c0 4-3.2 7.2-7.2 7.2h-48.2l-5.3 6.4c-1.4 1.1.1.1.1-1.6v-42.8c0-4 3.2-7.2 7.2-7.2h46.3c1.7 0 3.3.6 4.6 1.6 1.5 1.4 2.5 3.4 2.5 5.6z" fill-rule="nonzero"/><path d="m62.4 5.4v30.8c0 4-3.2 7.2-7.2 7.2h-48.2l-2.7 3.3v-36c0-4 3.2-7.2 7.2-7.2h46.3c1.7 0 3.3.6 4.6 1.6z" fill-rule="nonzero"/><path d="m8.6.3h-.2c-4 0-7.3 3.1-7.6 7" stroke-linecap="round" stroke-linejoin="round" stroke-width="3"/><path d="m23.3 48h34.1c4.2 0 7.6-3.4 7.6-7.6v-32.6c0-4.2-3.4-7.6-7.6-7.6h-40.5" stroke-linecap="round" stroke-linejoin="round" stroke-width="3"/><path d="m.8 15.8v37.4c0 1.8 2.1 2.9 3.6 1.7l5.7-6.8h3.3" stroke-linecap="round" stroke-linejoin="round" stroke-width="3"/><g fill-rule="nonzero"><circle cx="18.2" cy="24.8" r="4.3"/><circle cx="32.9" cy="24.8" r="4.3"/><path d="m50.4 28.1c-.8.7-1.8 1.1-2.8 1.1-2.4 0-4.3-1.9-4.3-4.3s1.9-4.3 4.3-4.3 4.3 1.9 4.3 4.3c0 1.2-.6 2.4-1.5 3.2"/><circle cx="19" cy="26.6" r="3.4"/><circle cx="34.1" cy="26.6" r="3.4"/><circle cx="48.4" cy="26.6" r="3.4"/></g><path d="m18.5 20.5c2.2.2 3.9 2 3.9 4.3 0 2.4-1.9 4.3-4.3 4.3s-4.3-1.9-4.3-4.3c0-.9.3-1.7.7-2.4" stroke-linecap="round" stroke-linejoin="round" stroke-width="3"/><circle cx="32.9" cy="24.8" r="4.3" stroke-linecap="round" stroke-linejoin="round" stroke-width="3"/><path d="m48.3 29.1c-.2 0-.5.1-.7.1-2.4 0-4.3-1.9-4.3-4.3s1.9-4.3 4.3-4.3 4.3 1.9 4.3 4.3c0 .4-.1.8-.2 1.2" stroke-linecap="round" stroke-linejoin="round" stroke-width="3"/></g></g></svg>

<?xml version="1.0" encoding="UTF-8"?>
<svg width="149px" height="132px" viewBox="0 0 149 132" version="1.1" xmlns="http://www.w3.org/2000/svg" xmlns:xlink="http://www.w3.org/1999/xlink">
    <!-- Generator: Sketch 51.2 (57519) - http://www.bohemiancoding.com/sketch -->
    <title>Support</title>
    <desc>Created with Sketch.</desc>
    <defs></defs>
    <g id="Page-1" stroke="none" stroke-width="1" fill="none" fill-rule="evenodd">
        <g id="Support" transform="translate(1.000000, 2.000000)">
            <g id="Group" transform="translate(0.000000, 24.000000)">
                <path d="M0.9,104.5 C0.9,104.5 82,104.5 90.5,104.5 C90.5,93 82,76 64.8,75.9 C56.2,75.9 55.3,75.4 55.3,75.4 L55.3,65.4 C61.6,60.2 67,54 68.5,46 C72.4,45.1 75,41.5 74.6,37.5 C74.4,35.7 73.3,34.1 73.3,32.3 C73.2,27.3 73.2,22.5 69.9,16.3 C64.9,6.9 55.1,0.7 43.9,0.7 C41.7,0.7 39.4,1 37.2,1.5 C32.5,2.6 28,4.9 24.4,8.1 C20.6,11.4 17.8,15.7 16.2,20.5 C14.6,25.3 14.3,30.4 15,35.3 C15.1,36.1 15.4,36 14.8,36.8 C13.8,38.1 12.8,40.4 13.7,43.1 C15.2,47.3 18.2,46.8 21,49.2 C20.8,49.3 20.7,49.4 20.5,49.5 L17.3,50.5 C-1.3,56.3 -3.4,76.2 15.7,79.8 L12.4,80.6 C5.1,86.3 0.9,96.2 0.9,104.5 Z" id="Shape" class="fill-neutral" fill-rule="nonzero"></path>
                <path d="M25.6,58.8 L25.8,58 L27.4,59.3 L36,66.3 L35.9,68.3 L35.7,71 L35.4,75.6 L35.4,75.8 C35.4,75.8 34.1,75.7 26.6,70.1 C19.1,64.5 23.9,60.8 25.6,58.8 Z M82.9,84.5 C82.9,84.5 82.8,84.4 82.8,84.4 C82,83.4 81,82.4 79.9,81.6 C79.8,81.5 79.6,81.4 79.5,81.3 C79.5,81.3 79.4,81.2 79.4,81.2 C77.8,80 76.1,79 74,78.2 C71.4,77.2 68.4,76.7 64.9,76.6 C56.8,76.5 55.1,76.9 55.1,76.9 L55.1,67.4 L55.3,67.3 C56.2,66.5 57.1,65.8 57.9,64.9 C61.8,61.1 65.1,56.9 66.7,51.8 C66.7,51.8 66.7,51.8 66.7,51.8 C67,50.9 67.2,50 67.4,49 C67.5,49 67.7,48.9 67.8,48.9 C70.4,48.2 72.3,46 72.9,43.4 C73.1,42.6 73.1,41.8 73.1,40.9 C72.9,39.2 71.9,37.7 71.9,35.9 C71.9,33.5 71.8,31.1 71.4,28.6 C71,26.2 70.2,23.6 68.7,20.7 C64,11.8 54.9,5.9 44.5,5.9 C42.4,5.9 40.3,6.1 38.3,6.6 C33.9,7.7 29.8,9.8 26.4,12.9 C22.9,16.1 20.2,20.2 18.8,24.7 C17.7,28.2 17.2,31.8 17.4,35.5 C17.4,36.6 17.5,37.7 17.7,38.8 C17.8,39.6 18,39.5 17.5,40.2 C16.6,41.5 15.6,43.6 16.5,46.2 C16.6,46.4 16.6,46.6 16.7,46.7 C16.8,46.9 16.9,47.2 17,47.4 C17.7,48.7 18.6,49.3 19.6,49.8 C20.5,50.3 21.4,50.6 22.3,51.2 C22.6,51.4 22.9,51.6 23.2,51.9 C23.1,52 23,52 22.8,52.1 C22.8,52.1 22.7,52.1 22.7,52.2 L19.7,53.2 C4.7,58 1.2,72.7 12,78.9 C12,78.9 12,78.9 12,78.9 C12.6,79.2 13.3,79.6 14,79.9 C14.3,80 14.5,80.1 14.8,80.2 C15.9,80.6 17,80.9 18.3,81.2 L15.2,82 C10.9,85.4 7.8,90.4 6,95.5 C4.5,100 7.8,104.7 12.6,104.7 L89.1,104.7 C89.1,98.4 87.7,90.4 82.9,84.5 Z" id="Shape" class="fill-primary-100" fill-rule="nonzero"></path>
                <path d="M34.5,93.8 C26.2,96.2 27.7,94.5 27.7,94.5 C27.7,94.5 31.4,88.1 27.8,84.3 C25.3,81.6 19.8,80.8 13.9,79.9 C0.8,74.5 3.8,58.3 19.6,53.2 L22.6,52.2 C22.6,52.2 22.7,52.2 22.7,52.1 C24.1,54.4 25.8,57 27.4,59.3 L25.8,58 L25.6,58.8 C23.9,60.8 19.3,64.5 26.7,70.1 C34.1,75.7 35.5,75.8 35.5,75.8 L35.5,75.6 L38.7,80.6 C38.7,80.6 42.9,91.4 34.5,93.8 Z" id="Shape" class="fill-primary-400" fill-rule="nonzero"></path>
                <path d="M30.8,19.3 C29.8,28 23.9,30.6 17.3,35.5 C17.2,31.9 17.6,28.2 18.7,24.7 C20.2,20.2 22.8,16.1 26.3,12.9 C29.7,9.8 33.8,7.7 38.2,6.6 C40.2,6.1 42.3,5.9 44.4,5.9 C54.8,5.9 63.9,11.8 68.6,20.7 C70.1,23.6 70.9,26.2 71.3,28.6 C56.9,35.7 37.4,25.7 30.9,16.1 C31,17.2 30.9,18.3 30.8,19.3" id="Shape" class="fill-primary-400" fill-rule="nonzero"></path>
                <path d="M81.8,104.5 C83.8,95.6 80.1,86.7 74.4,78.1 C86.4,82.5 89.5,95.4 89.5,104.5 L81.8,104.5 Z" id="Shape" fill="#BAD8FF" fill-rule="nonzero"></path>
                <path d="M55.5,67 L55.5,72.5 C55.4,72.5 55.4,72.6 55.3,72.6 C55.2,72.6 55.2,72.7 55.1,72.7 C45.2,76.6 39.9,74.5 36.2,71.1 L36.4,68.4 C38.6,69.3 41.8,70.5 44,71 C47.7,71.9 53.5,68.3 53.5,68.3 C54.8,67.6 54.4,67.8 55.5,67 Z" id="Shape" fill="#BAD8FF" fill-rule="nonzero"></path>
                <g id="Shape" class="stroke-primary" stroke-linecap="round" stroke-linejoin="round" stroke-width="3">
                    <path d="M25.8,8.3 L31,16 C37.6,25.8 57.5,35.9 72,28.2 L72.9,27.8"></path>
                    <path d="M15.5,36.4 L16.7,35.8 C20.7,32.8 24.5,30.8 27.1,27.8"></path>
                    <path d="M2.6,63.9 C1.4,68.8 3.2,73.9 8.6,77.2 C13.2,80.1 18.4,79.8 23.5,81.2 C25.6,81.8 27.8,82.8 28.7,85 C30,88.2 28.4,92.1 27.2,95 C49,93.9 38.2,76.2 32.4,72.3 C26.4,68.3 17.6,65 26.8,58"></path>
                    <path d="M20.5,49.4 L17.3,50.4 C14,51.4 11.2,52.9 9,54.7"></path>
                    <path d="M90.4,104.5 C90.4,92.1 80.9,75.9 65.5,75.9 C56.1,75.9 55.2,75.4 55.2,75.4 L55.2,74.1"></path>
                    <path d="M36.1,75.4 L36.1,67"></path>
                    <path d="M0.9,104.5 C0.9,96.2 5.1,86.3 12.5,80.6 L13.5,79.8"></path>
                    <path d="M53.8,66.6 C49.9,69.4 45.1,71.1 40.4,69.1 C37.6,67.9 35.3,65.9 32.8,64.2 C26,59.5 24.8,53.7 22.1,50.3 C19.3,46.7 15.4,47.9 13.8,43.2 C12.8,40.5 13.9,38.3 14.9,36.9 C15.5,36.1 15.2,36.3 15.1,35.4 C14.4,30.4 14.7,25.4 16.3,20.6 C17.9,15.8 20.7,11.5 24.5,8.2 C25.6,7.2 26.8,6.3 28,5.5"></path>
                    <path d="M43.1,0.8 C43.4,0.8 43.6,0.8 43.9,0.8 C55,0.8 64.9,7 69.9,16.4 C73.2,22.6 73.2,27.3 73.3,32.4 C73.3,34.2 74.4,35.8 74.6,37.6 C75,41.6 72.5,45.2 68.5,46.1 C67.5,51.1 65.1,55.4 61.9,59.1"></path>
                    <path d="M34,2.5 C34.1,2.5 34.2,2.4 34.4,2.4"></path>
                </g>
            </g>
            <g id="Group" transform="translate(81.000000, 0.000000)">
                <path d="M21.8,48 L57.4,48 C61.6,48 65,44.6 65,40.4 L65,7.8 C65,3.6 61.6,0.2 57.4,0.2 L8.4,0.2 C4.2,0.2 0.8,3.6 0.8,7.8 L0.8,53.1 C0.8,54.9 2.9,56 4.4,54.8 L10.1,48 L10.5,48" id="Shape" class="fill-neutral" fill-rule="nonzero"></path>
                <path d="M65,10.5 L65,41.3 C65,45.3 61.8,48.5 57.8,48.5 L9.6,48.5 L4.3,54.9 C2.9,56 4.4,55 4.4,53.3 L4.4,10.5 C4.4,6.5 7.6,3.3 11.6,3.3 L57.9,3.3 C59.6,3.3 61.2,3.9 62.5,4.9 C64,6.3 65,8.3 65,10.5 Z" id="Shape" class="fill-primary-500" fill-rule="nonzero"></path>
                <path d="M62.4,5.4 L62.4,36.2 C62.4,40.2 59.2,43.4 55.2,43.4 L7,43.4 L4.3,46.7 L4.3,10.7 C4.3,6.7 7.5,3.5 11.5,3.5 L57.8,3.5 C59.5,3.5 61.1,4.1 62.4,5.1 C62.4,5.1 62.4,5.3 62.4,5.4 Z" id="Shape" class="fill-primary-300" fill-rule="nonzero"></path>
                <path d="M8.6,0.3 L8.4,0.3 C4.4,0.3 1.1,3.4 0.8,7.3" id="Shape" class="stroke-primary" stroke-width="3" stroke-linecap="round" stroke-linejoin="round"></path>
                <path d="M23.3,48 L57.4,48 C61.6,48 65,44.6 65,40.4 L65,7.8 C65,3.6 61.6,0.2 57.4,0.2 L16.9,0.2" id="Shape" class="stroke-primary" stroke-width="3" stroke-linecap="round" stroke-linejoin="round"></path>
                <path d="M0.8,15.8 L0.8,53.2 C0.8,55 2.9,56.1 4.4,54.9 L10.1,48.1 L13.4,48.1" id="Shape" class="stroke-primary" stroke-width="3" stroke-linecap="round" stroke-linejoin="round"></path>
                <circle id="Oval" class="fill-neutral" fill-rule="nonzero" cx="18.2" cy="24.8" r="4.3"></circle>
                <circle id="Oval" class="fill-neutral" fill-rule="nonzero" cx="32.9" cy="24.8" r="4.3"></circle>
                <path d="M50.4,28.1 C49.6,28.8 48.6,29.2 47.6,29.2 C45.2,29.2 43.3,27.3 43.3,24.9 C43.3,22.5 45.2,20.6 47.6,20.6 C50,20.6 51.9,22.5 51.9,24.9 C51.9,26.1 51.3,27.3 50.4,28.1" id="Shape" class="fill-neutral" fill-rule="nonzero"></path>
                <circle id="Oval" class="fill-primary-300" fill-rule="nonzero" cx="19" cy="26.6" r="3.4"></circle>
                <circle id="Oval" class="fill-primary-300" fill-rule="nonzero" cx="34.1" cy="26.6" r="3.4"></circle>
                <circle id="Oval" class="fill-primary-300" fill-rule="nonzero" cx="48.4" cy="26.6" r="3.4"></circle>
                <path d="M18.5,20.5 C20.7,20.7 22.4,22.5 22.4,24.8 C22.4,27.2 20.5,29.1 18.1,29.1 C15.7,29.1 13.8,27.2 13.8,24.8 C13.8,23.9 14.1,23.1 14.5,22.4" id="Shape" class="stroke-primary" stroke-width="3" stroke-linecap="round" stroke-linejoin="round"></path>
                <circle id="Oval" class="stroke-primary" stroke-width="3" stroke-linecap="round" stroke-linejoin="round" cx="32.9" cy="24.8" r="4.3"></circle>
                <path d="M48.3,29.1 C48.1,29.1 47.8,29.2 47.6,29.2 C45.2,29.2 43.3,27.3 43.3,24.9 C43.3,22.5 45.2,20.6 47.6,20.6 C50,20.6 51.9,22.5 51.9,24.9 C51.9,25.3 51.8,25.7 51.7,26.1" id="Shape" class="stroke-primary" stroke-width="3" stroke-linecap="round" stroke-linejoin="round"></path>
            </g>
        </g>
    </g>
</svg>
